!!!COM: Haydn, Franz Joseph
!!!OTL: String Quartet in E Major
!!!OPS: Opus 54
!!!ONM: No. 3
!!!OMD: Allegretto
!!!OMV: 1
!!!SCT: H III:59
!!!SCA: Thematisch-bibliographisches Werkevererzeichnis (A. van Hoboken)
!!!YOR: Trautwein Edition
!!!ENC: Frances Bennion
!!!CDT: 1732/3/31/-1809/5/31/
!!!CNT: Oesterreich
!!!YEC: Copyright (c) 1994, 2000 Center for Computer Assisted Research in the Humanities
!!!YEM: Rights to all derivative editions reserved.
!!!YEM: Refer to licensing agreement for further details.
!!!YEN: United States of America
**kern	**kern	**kern	**kern
*k[f#c#g#d#]	*k[f#c#g#d#]	*k[f#c#g#d#]	*k[f#c#g#d#]
*E:	*E:	*E:	*E:
*clefF4	*clefC3	*clefG	*clefG
*M2/2	*M2/2	*M2/2	*M2/2
2.r	2.r	2.r	2.r
4r	4r	4G#	4r
=1	=1	=1	=1
1r	4F#	4A	2.r
.	4G#	4B	.
.	4A	4c#	.
.	4G#	4B	4ee
=2	=2	=2	=2
1BB	1F#	1A	4dd#
.	.	.	4b
.	.	.	4a
.	.	.	8f#
.	.	.	8d#
=3	=3	=3	=3
4C#	4E	4G#	4e
4BB#	4F#	4A	4d#
4C#	4E	4G#	4e
4AA	4c#	4f#	4a
=4	=4	=4	=4
2.BB	2.B	2e	2g#
.	.	4d#	4f#
4r	4E	4G#	4r
=5	=5	=5	=5
1r	4F#	4A	2.r
.	4G#	4B	.
.	4A	4c#	.
.	4G#	4B	4ee
=6	=6	=6	=6
1BB	1F#	1A	4dd#
.	.	.	4b
.	.	.	4a
.	.	.	8f#
.	.	.	8d#
=7	=7	=7	=7
4C#	4E	4G#	4e
4AA	4A	4c#	4f#
4BB	4G#	4B	4B
4BB	4F#	4A	8c#
.	.	.	8d#
=8	=8	=8	=8
[1EE	4E	4G#	4e
.	4F#	4A	2.r
.	4G#	4B	.
.	4g# 4B	4ee	.
=9	=9	=9	=9
1EE_	2.f# 2.A	4dd#	2.r
.	.	4b	.
.	.	4a	.
.	4d#	8f#	4bb
.	.	8d#	.
=10	=10	=10	=10
1EE_	2d#	2f#	2aa
.	4e	4e	4gg#
.	4b	4g#	4ddd
=11	=11	=11	=11
1EE_	2cc#	1a	4ccc#
.	.	.	4aa
.	4a	.	4ff#
.	8f#	.	8dd#
.	8d#	.	8b
=12	=12	=12	=12
1EE_	4B	1g#	4ee
.	4b	.	4gg#
.	4g#	.	4bb
.	4b	.	4ddd
=13	=13	=13	=13
1EE_	2cc#	1a	4ccc#
.	.	.	4aa
.	4a	.	4ff#
.	8f#	.	8dd#
.	8d#	.	16cc#
.	.	.	16b
=14	=14	=14	=14
1EE_	4B	1g#	4ee
.	4b	.	4gg#
.	4g#	.	4bb
.	4b	.	4ddd
=15	=15	=15	=15
1EE_	2cc#	1a	12bb#
.	.	.	12ccc#
.	.	.	12ccc#
.	.	.	12gg#
.	.	.	12aa
.	.	.	12aa
.	4a	.	12ee#
.	.	.	12ff#
.	.	.	12ff#
.	4f#	.	12aa
.	.	.	12ff#
.	.	.	12dd#
=16	=16	=16	=16
4EE]	4g#	4g#	12ee
.	.	.	12b
.	.	.	12a
2r	2r	2r	12g#
.	.	.	12f#
.	.	.	12e
.	.	.	12d#
.	.	.	12e
.	.	.	12g#
4E	4g#	4b	12b
.	.	.	12ee
.	.	.	12gg#
=17	=17	=17	=17
4D#	4f#	4b	12aa
.	.	.	12ff#
.	.	.	12ee
2r	2r	2r	12dd#
.	.	.	12cc#
.	.	.	12b
.	.	.	12a#
.	.	.	12b
.	.	.	12ff#
4D#	4a	4b	12dd#
.	.	.	12a
.	.	.	12ff#
=18	=18	=18	=18
4E	4g#	4b	12g#
.	.	.	12b
.	.	.	12a
2r	2r	2r	12g#
.	.	.	12f#
.	.	.	12e
.	.	.	12d#
.	.	.	12e
.	.	.	12g#
4E	4g#	4b	12b
.	.	.	12ee
.	.	.	12gg#
=19	=19	=19	=19
4D#	4f#	4b	12aa
.	.	.	12ff#
.	.	.	12ee
2r	2r	2r	12dd#
.	.	.	12cc#
.	.	.	12b
.	.	.	12a#
.	.	.	12b
.	.	.	12ff#
4D#	4f#	[4B	12dd#
.	.	.	12a
.	.	.	12ff#
=20	=20	=20	=20
2E	4r	4B]	8a
.	.	.	8g#
.	4G#	2c#	8r
.	.	.	8gg#
2F#	4r	.	8b
.	.	.	8a
.	4A	[4d#	8r
.	.	.	8aa
=21	=21	=21	=21
2G#	4r	4d#]	8cc#
.	.	.	8b
.	4B	2e	8r
.	.	.	8bb
2A	4r	.	8dd
.	.	.	8cc#
.	4c#	4f#	8r
.	.	.	8ccc#
=22	=22	=22	=22
2.B	2B	4.g#	4.ee
.	.	16a	16ff#
.	.	16g#	16ee
.	4r	4f#	4dd#
4r	4d#	4f#	4r
=23	=23	=23	=23
2.r	4c#	4e	4r
.	4B	4d#	4ff#
.	4A#	4c#	4ff#
4F#	4c#	4e	4ff#
=24	=24	=24	=24
2BB	4B	4d#	8ff#
.	.	.	8ddd#
.	4c#	4e	8ccc#
.	.	.	8bb
2r	4d#	4f#	8aa#
.	.	.	8bb
.	4d#	4f#	8aa#
.	.	.	8bb
=25	=25	=25	=25
2.r	4c#	4e	4..ff#
.	4B	4d#	.
.	.	.	16gg#
.	4A#	4c#	8.ff#
.	.	.	16gg#
4F#	4c#	4e	8.ff#
.	.	.	16gg#
=26	=26	=26	=26
2.BB	4B	4d#	8ff#
.	.	.	8ddd#
.	4c#	4e	8ccc#
.	.	.	8bb
.	4d#	4f#	8aa#
.	.	.	8bb
4D#	4b	4f#	8ff#
.	.	.	8aa
=27	=27	=27	=27
4E	4e	8g#	2gg#
.	.	8b	.
4E	2.r	8a	.
.	.	8g#	.
4D#	.	8f#	2bb#
.	.	8a	.
4D#	.	8g#	.
.	.	8f#	.
=28	=28	=28	=28
4C#	2.r	8e	2.ccc#
.	.	8g#	.
4D#	.	8f#	.
.	.	8a	.
4E	.	4g#	.
4BB#	[4g#	4f#	4ddd#
=29	=29	=29	=29
4C#	4g#]	4e	4eee
4D#	4f#	4f#	4ccc#
4E	4e	4g#	4gg#
4E#	4g#	4g#	4ccc#
=30	=30	=30	=30
4F#	2.c#	2.f#	2bb
4FF#	.	.	.
4F#	.	.	4aa#
4G#	4B	4e	4gg#
=31	=31	=31	=31
4A#	1c#	2e	2gg#
4A#	.	.	.
4A#	.	4f#	4ff#
4A#	.	4g#	4ee
=32	=32	=32	=32
2B	2d#	2f#	12dd#
.	.	.	12bb
.	.	.	12aa#
.	.	.	12gg#
.	.	.	12ff#
.	.	.	12ee
4r	4r	4r	12dd#
.	.	.	12cc#
.	.	.	12b
4F#	4c#	4a#	12a#
.	.	.	12cc#
.	.	.	12ee
=33	=33	=33	=33
4B	4B	12b	4dd#
.	.	12b	.
.	.	12a#	.
2r	2r	12g#	2.r
.	.	12f#	.
.	.	12e	.
.	.	12d#	.
.	.	12c#	.
.	.	12B	.
4FF#	4c#	12A#	.
.	.	12c#	.
.	.	12e	.
=34	=34	=34	=34
4BB	4B	4d#	12dd#
.	.	.	12bb
.	.	.	12aa#
2r	2r	2r	12gg#
.	.	.	12ff#
.	.	.	12ee
.	.	.	12dd#
.	.	.	12cc#
.	.	.	12b
4F#	8c#	4e	12a#
.	.	.	12b
.	8f#	.	.
.	.	.	12cc#
=35	=35	=35	=35
2G#	2d#	2d#	12b
.	.	.	12dd#
.	.	.	12cc#
.	.	.	12b
.	.	.	12dd#
.	.	.	12cc#
4r	4r	4r	12b
.	.	.	12a#
.	.	.	12g#
4D#	4A#	4c#	12f##
.	.	.	12g#
.	.	.	12a#
=36	=36	=36	=36
2G#	2B	2B	12g#
.	.	.	12dd#
.	.	.	12cc#
.	.	.	12b
.	.	.	12a#
.	.	.	12g#
4r	4r	4r	12f#
.	.	.	12e#
.	.	.	12g#
4C#	4G#	4B	12b
.	.	.	12g#
.	.	.	12e#
=37	=37	=37	=37
2F#	4F#	4A#	12e#
.	.	.	12f#
.	.	.	12a#
.	4G#	2.r	12e#
.	.	.	12f#
.	.	.	12b
2r	4A#	.	12e#
.	.	.	12f#
.	.	.	12cc#
.	4B	.	12e#
.	.	.	12f#
.	.	.	12dd#
=38	=38	=38	=38
2AA#	1f#	2cc#	12f#
.	.	.	12ee
.	.	.	12ee
.	.	.	12ee
.	.	.	12ee
.	.	.	12ee
2BB	.	[2dd#	12f#
.	.	.	12dd#
.	.	.	12dd#
.	.	.	12dd#
.	.	.	12dd#
.	.	.	12dd#
=39	=39	=39	=39
2.E	2B	2dd#]	12g#
.	.	.	12gg#
.	.	.	12gg#
.	.	.	12gg#
.	.	.	12gg#
.	.	.	12gg#
.	4c#	4cc#	12a#
.	.	.	12aa#
.	.	.	12aa#
4E#	4d	4b	12b
.	.	.	12bb
.	.	.	12bb
=40	=40	=40	=40
2F#	2d#	2b	12ff#
.	.	.	12ee#
.	.	.	12gg#
.	.	.	12ff#
.	.	.	12ee#
.	.	.	12gg#
2r	2r	2r	12ff#
.	.	.	12ee#
.	.	.	12gg#
.	.	.	12ff#
.	.	.	12bb
.	.	.	12b
=41	=41	=41	=41
4F#	4e	1a#	1cc#
4F#	4e	.	.
4F#	4e	.	.
4F#	4e	.	.
=42	=42	=42	=42
4BB	4B	4B	[1b
4C#	4c#	4c#	.
4E	4e	4e	.
4D#	4d#	4d#	.
=43	=43	=43	=43
4F#	4f#	4f#	1b]
4E	4e	4e	.
4G#	4g#	4g#	.
4F#	4f#	4f#	.
=44	=44	=44	=44
2A	2d#	2f#	1b#
4G#	4e	4g#	.
4F#	4d#	4a	.
=45	=45	=45	=45
2E	2c#	2g#	4cc#
.	.	.	4gg#
2r	2r	2r	4ee
.	.	.	4cc#
=46	=46	=46	=46
4F#	4d#	2d#	2b
4F#	4B	.	.
4F#	4A#	8.e	8.cc#
.	.	16d#	16b
4F#	4A#	8.e	8.cc#
.	.	16c#	16dd#
=47	=47	=47	=47
4BB	4B	4B	[1b
4C#	4c#	4c#	.
4E	4e	4e	.
4D	4d	4d	.
=48	=48	=48	=48
4F#	4f#	4f#	1b]
4E	4e	4e	.
4G	4g	4g	.
4F#	4f#	4f#	.
=49	=49	=49	=49
2A	2d	2f#	2.d 2.cc
2D	2f#	2a	.
.	.	.	4ccc
=50	=50	=50	=50
1G	4g	1d	4bb
.	4B	.	4gg
.	4B	.	4dd
.	4B	.	4b
=51	=51	=51	=51
2.F#	[1B	2.d#	4a
.	.	.	4f#
.	.	.	4d#
4D#	.	4f#	4aa
=52	=52	=52	=52
1E	4B]	[1B	4gg
.	4G	.	4ee
.	4G	.	4b
.	4G	.	4g
=53	=53	=53	=53
1C	2G	2B]	8e
.	.	.	8d#
.	.	.	8e
.	.	.	8f#
.	2E	2A#	4g
.	.	.	8f#
.	.	.	8e
=54	=54	=54	=54
[1BB	1F#	2B	4d#
.	.	.	4f#
.	.	2d#	4b
.	.	.	4a
=55	=55	=55	=55
1BB_	1G	1e	4g
.	.	.	4e
.	.	.	4cc
.	.	.	8e
.	.	.	8A#
=56	=56	=56	=56
1BB_	1F#	1d#	4B
.	.	.	4d#
.	.	.	4f#
.	.	.	8b
.	.	.	8a
=57	=57	=57	=57
1BB_	1G	1e	4g
.	.	.	4e
.	.	.	4c
.	.	.	8e
.	.	.	8A#
=58	=58	=58	=58
4BB]	4F#	4d#	4B
2.r	2r	2r	4b
.	.	.	2r
.	4G	4B	.
=59	=59	=59	=59
1r	4A	4c	2.r
.	4B	4d	.
.	4c	4e	.
.	4B	4d	4gg
=60	=60	=60	=60
1D	1A	1c	4ff#
.	.	.	4dd
.	.	.	4cc
.	.	.	8a
.	.	.	8f#
=61	=61	=61	=61
4E	4G	4B	4g
4D#	4A	4c	4f#
4E	4G	4B	4g
4C	4e	4a	4cc
=62	=62	=62	=62
2.D	2.d	2g	2b
.	.	4f#	4a
4r	4G	4B	4r
=63	=63	=63	=63
1r	4A	4c	2.r
.	4B	4d	.
.	4c	4e	.
.	4B	4d	4gg
=64	=64	=64	=64
1D	1A	1c	4ff#
.	.	.	4dd
.	.	.	4cc
.	.	.	8a
.	.	.	8f#
=65	=65	=65	=65
4E	4G	4B	4g
4C	4c	4e	4a
4D	4B	4d	4d
4D	4A	8c	8e
.	.	8A	8f#
=66	=66	=66	=66
4GG	4B	4G	[1g
2.r	2.r	4A	.
.	.	4c	.
.	.	4B	.
=67	=67	=67	=67
1r	4G	4d	1g]
.	4A	4c	.
.	4c	4e	.
.	4B	4d	.
=68	=68	=68	=68
1EE	2d	2f	1g#
.	4c	4e	.
.	4B	4d	.
=69	=69	=69	=69
2AA	4A	4c#	[1a
.	4B	2.r	.
2r	4d	.	.
.	4c#	.	.
=70	=70	=70	=70
1r	4e	4A	1a]
.	4d	4B	.
.	4f#	4d	.
.	4e	4c#	.
=71	=71	=71	=71
1FF#	2g	2e	1a#
.	4f#	4d	.
.	4e	4c#	.
=72	=72	=72	=72
2BB	4d	4B	12b
.	.	.	12cc#
.	.	.	12dd
.	2r	2r	12b
.	.	.	12ee#
.	.	.	12ff#
4r	.	.	12b
.	.	.	12aa#
.	.	.	12bb
4BB	4f#	4dd	12b
.	.	.	12ddd
.	.	.	12bb
=73	=73	=73	=73
4F#	4f#	4cc#	12aa#
.	.	.	12bb
.	.	.	12ccc#
2r	2r	2r	12ee
.	.	.	12gg
.	.	.	12ff#
.	.	.	12ee
.	.	.	12dd
.	.	.	12cc#
4F#	4c#	4e	12b
.	.	.	12a#
.	.	.	12cc#
=74	=74	=74	=74
4BB	4d	4d	12b
.	.	.	12cc#
.	.	.	12dd
2r	2r	2r	12b
.	.	.	12ee#
.	.	.	12ff#
.	.	.	12b
.	.	.	12aa#
.	.	.	12bb
4BB	4f#	4dd	12b
.	.	.	12ddd
.	.	.	12bb
=75	=75	=75	=75
4F#	4f#	4cc#	12aa#
.	.	.	12bb
.	.	.	12ccc#
2r	2r	2r	12ee
.	.	.	12gg
.	.	.	12ff#
.	.	.	12ee
.	.	.	12dd
.	.	.	12cc#
4F#	4c#	4e	12b
.	.	.	12a#
.	.	.	12cc#
=76	=76	=76	=76
4BB	4d	4d	12b
.	.	.	12cc#
.	.	.	12dd
2r	2r	2r	12b
.	.	.	12ee#
.	.	.	12ff#
.	.	.	12b
.	.	.	12aa#
.	.	.	12bb
4D#	4B	4f#	12b
.	.	.	12bb
.	.	.	12aa
=77	=77	=77	=77
4E	4B	12e	4gg
.	.	12f#	.
.	.	12g	.
2r	2r	12e	2.r
.	.	12a#	.
.	.	12b	.
.	.	12e	.
.	.	12dd#	.
.	.	12ee	.
4G#	4B	12e	.
.	.	12cc#	.
.	.	12dd	.
=78	=78	=78	=78
4A	4A	4cc#	12a
.	.	.	12b#
.	.	.	12cc#
2r	2r	2r	12a
.	.	.	12dd#
.	.	.	12ee
.	.	.	12a
.	.	.	12gg#
.	.	.	12aa
4C#	4A	4e	12a
.	.	.	12ff#
.	.	.	12gg
=79	=79	=79	=79
4D	4A	4f#	12ff#
.	.	.	12aa
.	.	.	12gg
2r	2r	2r	12ff#
.	.	.	12ee
.	.	.	12dd
.	.	.	12cc#
.	.	.	12b
.	.	.	12a
4AA	4c#	12e	12g
.	.	12f#	12f#
.	.	12g	12e
=80	=80	=80	=80
12D	2.d	4f#	4d
12A	.	.	.
12G	.	.	.
12F#	.	2d	2.r
12E	.	.	.
12D	.	.	.
12C#	.	.	.
12BB	.	.	.
12AA	.	.	.
12GG	4c#	4e	.
12FF#	.	.	.
12EE	.	.	.
=81	=81	=81	=81
8DD	4d	4f#	2.r
8D	.	.	.
8DD	4e	4g	.
8D	.	.	.
8DD	4f#	4a	.
8D	.	.	.
8DD	4F#	4d	4aa
8D	.	.	.
=82	=82	=82	=82
8DD	4E	4c#	4gg
8D	.	.	.
8DD	4c#	4e	4ee
8D	.	.	.
8DD	4e	4g	4cc#
8D	.	.	.
8DD	8C#	8e	8g
8D	8G	8c#	8e
=83	=83	=83	=83
8DD	4F#	4d	4d
8D	.	.	.
8DD	4G	2r	4e
8D	.	.	.
8DD	4A	.	4f#
8D	.	.	.
8DD	4F#	4d	4aa
8D	.	.	.
=84	=84	=84	=84
8DD	4E	4c#	4gg
8D	.	.	.
8DD	4c#	4e	4ee
8D	.	.	.
8DD	4e	4g	8cc#
8D	.	.	8a
8DD	8C#	8e	8g
8D	8G	8c#	8e
=85	=85	=85	=85
1DD	4F#	4d	1d
.	4f#	4a	.
.	4e#	4g#	.
.	4f#	4a	.
=86	=86	=86	=86
1CC#	8r	8r	1c#
.	8f#	8a	.
.	8e#	8g#	.
.	8f#	8a	.
.	8e#	8g#	.
.	8f#	8a	.
.	8e#	8g#	.
.	8f#	8a	.
=87	=87	=87	=87
1BBB#	8r	8r	1B#
.	8f#	8a	.
.	8e#	8g#	.
.	8f#	8a	.
.	8e#	8g#	.
.	8f#	8a	.
.	8g#	8b	.
.	8f#	8a	.
=88	=88	=88	=88
8CC#	4e#	4g#	4c#
8C#	.	.	.
8CC#	4f#	4a	2.r
8C#	.	.	.
8CC#	4g#	4b	.
8C#	.	.	.
8CC#	4e#	4g#	.
8C#	.	.	.
=89	=89	=89	=89
8CC#	4f#	4a	2.r
8C#	.	.	.
8CC#	4g#	4b	.
8C#	.	.	.
8CC#	4a	4cc#	.
8C#	.	.	.
8CC#	4f#	4a	4ccc#
8C#	.	.	.
=90	=90	=90	=90
8CC#	4g#	4b	4bb
8C#	.	.	.
8CC#	4a	4cc#	4gg#
8C#	.	.	.
8CC#	4b	4dd	4ee#
8C#	.	.	.
8CC#	4E#	4G#	8dd
8C#	.	.	8b
=91	=91	=91	=91
8CC#	4F#	4A	4a
8C#	.	.	.
8CC#	4G#	4B	4e#
8C#	.	.	.
8CC#	4A	4c#	4f#
8C#	.	.	.
8CC#	4F#	4A	4ccc#
8C#	.	.	.
=92	=92	=92	=92
8CC#	4G#	4B	4bb
8C#	.	.	.
8CC#	4A	4c#	4gg#
8C#	.	.	.
8CC#	4B	4d	4ee#
8C#	.	.	.
8CC#	4E#	4G#	8dd
8C#	.	.	8b
=93	=93	=93	=93
8CC#	4F#	4A	4a
8C#	.	.	.
8CC#	4G#	4B	4e#
8C#	.	.	.
8CC#	4A	4c#	4f#
8C#	.	.	.
8CC#	4f#	4a	4cc#
8C#	.	.	.
=94	=94	=94	=94
8CC#	4g#	4g#	4b
8C#	.	.	.
8CC#	4a	4f#	4a
8C#	.	.	.
4CC#	4b	4e#	4g#
4E#	4c#	4g#	4b
=95	=95	=95	=95
2.F#	2.d	4f#	4a
.	.	4e#	4g#
.	.	4f#	4a
4F#	4d#	4a	4cc
=96	=96	=96	=96
2.G	2.e	4g	4b
.	.	4f#	4a#
.	.	4g	4b
4G#	4e#	4b	4dd
=97	=97	=97	=97
2.A	2.f#	4a	4cc#
.	.	4g#	4b#
.	.	4a	4cc#
4G#	4f##	4cc#	4ee
=98	=98	=98	=98
[1G#	4g#	4b#	4dd#
.	2r	4a##	4cc##
.	.	4b#	4dd#
.	4B#	4g#	4gg#
=99	=99	=99	=99
1G#]	4c#	4a	2gg#
.	4B#	4g#	.
.	4c#	4a	[2ff#
.	4d#	4b	.
=100	=100	=100	=100
[1GG#	4B#	4g#	2ff#]
.	4A#	4f#	.
.	4B#	4g#	[2ee
.	4c#	4a	.
=101	=101	=101	=101
1GG#_	4A#	4f#	2ee]
.	4G#	4e	.
.	4A#	4f#	[2dd#
.	4B#	4g#	.
=102	=102	=102	=102
1GG#_	4c#	4e	2dd#]
.	4B#	4d#	.
.	4c#	8e	2cc#
.	.	8g#	.
.	4c#	8f#	.
.	.	8e	.
=103	=103	=103	=103
1GG#_	4G#	4d#	4b#
.	4D#	4B#	4g#
.	2E	2c#	4f##
.	.	.	8e
.	.	.	8c#
=104	=104	=104	=104
1GG#_	2D#	2B#	4B#
.	.	.	4g#
.	2E	2c#	4f##
.	.	.	8e
.	.	.	8c#
=105	=105	=105	=105
1GG#_	2D#	2B#	4B#
.	.	.	4g#
.	2E	2c#	4f##
.	.	.	8e
.	.	.	8c#
=106	=106	=106	=106
4GG#]	4D#	4B#	4B#
2.r	2r	2r	4g#
.	.	.	2r
.	4E	4G#	.
=107	=107	=107	=107
1r	4F#	4A	2.r
.	4G#	4B	.
.	4A	4c#	.
.	4G#	4B	4ee
=108	=108	=108	=108
1BB	1F#	1A	4dd#
.	.	.	4b
.	.	.	4a
.	.	.	8f#
.	.	.	8d#
=109	=109	=109	=109
4C#	4E	4G#	4e
4BB#	4F#	4A	4d#
4C#	4E	4G#	4e
4AA	4c#	4f#	4a
=110	=110	=110	=110
2.BB	2.B	2e	2g#
.	.	4d#	4f#
4r	4r	4e	4g#
=111	=111	=111	=111
2.r	1r	4f#	4a
.	.	4g#	4b
.	.	4a	4cc#
4e	.	4g#	4b
=112	=112	=112	=112
4d#	1b	1ff#	1aa
4B	.	.	.
4A	.	.	.
8F#	.	.	.
8D#	.	.	.
=113	=113	=113	=113
4E	4e	4ee	4gg#
4AA	4A	8cc#	4ff#
.	.	8a	.
4BB	4B	4g#	4ee
4BB	4B	8a	8ff#
.	.	8f#	8dd#
=114	=114	=114	=114
[1EE	4G#	4e	4ee
.	4A	4f#	2.r
.	4B	4g#	.
.	4g# 4B	4ee	.
=115	=115	=115	=115
1EE_	2.f# 2.A	4dd#	2.r
.	.	4b	.
.	.	4a	.
.	4d#	8f#	4bb
.	.	8d#	.
=116	=116	=116	=116
1EE_	2d#	2f#	2aa
.	4e	4e	4gg#
.	4b	4g#	4ddd
=117	=117	=117	=117
1EE_	2cc#	1a	4ccc#
.	.	.	4aa
.	4a	.	4ff#
.	8f#	.	8dd#
.	8d#	.	8b
=118	=118	=118	=118
1EE_	4B	1g#	4ee
.	4b	.	4gg#
.	4g#	.	4bb
.	4b	.	4ddd
=119	=119	=119	=119
1EE_	2cc#	1a	4ccc#
.	.	.	4aa
.	4a	.	4ff#
.	8f#	.	8dd#
.	8d#	.	16cc#
.	.	.	16b
=120	=120	=120	=120
1EE_	4B	1g#	4ee
.	4b	.	4gg#
.	4g#	.	4bb
.	4b	.	4ddd
=121	=121	=121	=121
1EE_	2cc#	1a	12bb#
.	.	.	12ccc#
.	.	.	12ccc#
.	.	.	12gg#
.	.	.	12aa
.	.	.	12aa
.	4a	.	12ee#
.	.	.	12ff#
.	.	.	12ff#
.	4f#	.	12aa
.	.	.	12ff#
.	.	.	12dd#
=122	=122	=122	=122
4EE]	4g#	4g#	12ee
.	.	.	12b
.	.	.	12a
2r	2r	2r	12g#
.	.	.	12f#
.	.	.	12e
.	.	.	12d#
.	.	.	12e
.	.	.	12g#
4E	4g#	4b	12b
.	.	.	12ee
.	.	.	12gg#
=123	=123	=123	=123
4D#	4f#	4b	12aa
.	.	.	12ff#
.	.	.	12ee
2r	2r	2r	12dd#
.	.	.	12cc#
.	.	.	12b
.	.	.	12a#
.	.	.	12b
.	.	.	12ff#
4D#	4a	4b	12dd#
.	.	.	12a
.	.	.	12ff#
=124	=124	=124	=124
4E	4g#	4b	12g#
.	.	.	12b
.	.	.	12a
2r	2r	2r	12g#
.	.	.	12f#
.	.	.	12e
.	.	.	12d#
.	.	.	12e
.	.	.	12g#
4E	4g#	4b	12b
.	.	.	12ee
.	.	.	12gg#
=125	=125	=125	=125
4D#	4f#	4b	12aa
.	.	.	12ff#
.	.	.	12ee
2r	2r	2r	12dd#
.	.	.	12cc#
.	.	.	12b
.	.	.	12a#
.	.	.	12b
.	.	.	12ff#
4D#	4f#	[4B	12dd#
.	.	.	12a
.	.	.	12ff#
=126	=126	=126	=126
2E	4r	4B]	8a
.	.	.	8g#
.	4G#	2c#	8r
.	.	.	8gg#
2F#	4r	.	8b
.	.	.	8a
.	4A	[4d#	8r
.	.	.	8aa
=127	=127	=127	=127
2G#	4r	4d#]	8cc#
.	.	.	8b
.	4B	2e	8r
.	.	.	8bb
2A	4r	.	8dd
.	.	.	8cc#
.	4c#	4f#	8r
.	.	.	8ccc#
=128	=128	=128	=128
4G#	4r	4B	8ff#
.	.	.	8ee#
4F#	4f#	4a	8r
.	.	.	4ddd
2E#	2e#	2g#	.
.	.	.	4ccc#
.	.	.	[8bb
=129	=129	=129	=129
4F#	4f#	4a	8bb]
.	.	.	8aa
2.r	4e	4g#	8r
.	.	.	8ccc#
.	4d#	4f#	8r
.	.	.	8bb
.	4c#	4e	8r
.	.	.	[8aa
=130	=130	=130	=130
1r	4B	4d#	8aa]
.	.	.	4gg#
.	4a	4cc#	.
.	.	.	4ff#
.	4g#	4b	.
.	.	.	4ee
.	4f#	4a	.
.	.	.	[8dd#
=131	=131	=131	=131
1r	4e	4g#	8dd#]
.	.	.	4cc#
.	4d#	4f#	.
.	.	.	[8.b
.	2c#	2e	.
.	.	.	48b]
.	.	.	12a#
.	.	.	12cc#
.	.	.	12ee
.	.	.	12cc#
.	.	.	12a#
=132	=132	=132	=132
[1BB	1d#	1f#	12b
.	.	.	12dd#
.	.	.	12cc#
.	.	.	12b
.	.	.	12aa
.	.	.	12gg#
.	.	.	12ff#
.	.	.	12ee
.	.	.	12dd#
.	.	.	12cc#
.	.	.	12b
.	.	.	12a
=133	=133	=133	=133
1BB_	1e	1g#	12g#
.	.	.	12gg#
.	.	.	12ff#
.	.	.	12ee
.	.	.	12bb
.	.	.	12aa
.	.	.	12gg#
.	.	.	12ff#
.	.	.	12ee
.	.	.	12dd#
.	.	.	12cc#
.	.	.	12b
=134	=134	=134	=134
1BB]	1f#	2.a	12a
.	.	.	12dd#
.	.	.	12cc#
.	.	.	12b
.	.	.	12ff#
.	.	.	12ee
.	.	.	12dd#
.	.	.	12ff#
.	.	.	12gg#
.	.	4dd#	12aa
.	.	.	12gg#
.	.	.	12ff#
=135	=135	=135	=135
4E	4e	4ee	12gg#
.	.	.	12eee
.	.	.	12ddd#
2r	2r	2r	12ccc#
.	.	.	12bb
.	.	.	12aa
.	.	.	12gg#
.	.	.	12ff#
.	.	.	12ee
4BB	4f#	4dd#	12dd#
.	.	.	12ff#
.	.	.	12aa
=136	=136	=136	=136
4E	4e	12ee	4gg#
.	.	12ee	.
.	.	12dd#	.
2r	2r	12cc#	2.r
.	.	12b	.
.	.	12a	.
.	.	12g#	.
.	.	12f#	.
.	.	12e	.
4BB	4f#	12d#	.
.	.	12f#	.
.	.	12a	.
=137	=137	=137	=137
4E	4e	4g#	12gg#
.	.	.	12eee
.	.	.	12ddd#
2r	2r	2r	12ccc#
.	.	.	12bb
.	.	.	12aa
.	.	.	12gg#
.	.	.	12ff#
.	.	.	12ee
4BB	8F#	4a	12dd#
.	.	.	12ee
.	8B	.	.
.	.	.	12ff#
=138	=138	=138	=138
2C#	2G#	2g#	12ee
.	.	.	12gg#
.	.	.	12ff#
.	.	.	12ee
.	.	.	12gg#
.	.	.	12ff#
4r	4r	4r	12ee
.	.	.	12dd#
.	.	.	12cc#
4G#	4d#	4f#	12b#
.	.	.	12cc#
.	.	.	12dd#
=139	=139	=139	=139
2C#	2e	2e	12cc#
.	.	.	12gg#
.	.	.	12ff#
.	.	.	12ee
.	.	.	12dd#
.	.	.	12cc#
4r	4r	4r	12b
.	.	.	12a#
.	.	.	12cc#
4F#	4c#	4e	12ee
.	.	.	12cc#
.	.	.	12a#
=140	=140	=140	=140
2BB	4B	4d#	12b
.	.	.	12dd#
.	.	.	12b
.	4c#	2.r	12ee
.	.	.	12b
.	.	.	12ee
2r	4d#	.	12ff#
.	.	.	12b
.	.	.	12ff#
.	4e	.	12gg#
.	.	.	12b
.	.	.	12gg#
=141	=141	=141	=141
2D#	2.b	2ff#	12b
.	.	.	12aa
.	.	.	12aa
.	.	.	12aa
.	.	.	12aa
.	.	.	12aa
2E	.	[2gg#	12b
.	.	.	12gg#
.	.	.	12gg#
.	4B	.	12gg#
.	.	.	12gg#
.	.	.	12gg#
=142	=142	=142	=142
2.AA	2e	2gg#]	12cc#
.	.	.	12ccc#
.	.	.	12ccc#
.	.	.	12ccc#
.	.	.	12ccc#
.	.	.	12ccc#
.	4f#	4ff#	12dd#
.	.	.	12ddd#
.	.	.	12ddd#
4AA#	4g	4ee	12ee
.	.	.	12eee
.	.	.	12eee
=143	=143	=143	=143
2BB	2g#	2ee	12bb
.	.	.	12aa#
.	.	.	12ccc#
.	.	.	12bb
.	.	.	12aa#
.	.	.	12ccc#
2r	2r	2r	12bb
.	.	.	12aa#
.	.	.	12ccc#
.	.	.	12bb
.	.	.	12eee
.	.	.	12ee
=144	=144	=144	=144
4BB	4a	1dd#	1ff#
4BB	4a	.	.
4BB	4a	.	.
4BB	4a	.	.
=145	=145	=145	=145
4EE	4E	4e	[1ee
4FF#	4F#	4f#	.
4AA	4A	4a	.
4GG#	4G#	4g#	.
=146	=146	=146	=146
4BB	4B	4b	1ee]
4AA	4A	4a	.
4C#	4c#	4cc#	.
4BB	4B	4b	.
=147	=147	=147	=147
2D	2g#	2b	1ee#
4C#	4a	4cc#	.
4BB	4g#	4dd	.
=148	=148	=148	=148
2AA	2f#	2cc#	4ff#
.	.	.	4ccc#
2r	2r	2r	4aa
.	.	.	4ff#
=149	=149	=149	=149
4BB	4g#	2g#	2ee
4BB	4e	.	.
4BB	4d#	8.a	8.ff#
.	.	16g#	16ee
4BB	4d#	8.a	8.ff#
.	.	16f#	16gg#
=150	=150	=150	=150
4EE	4E	4e	[1ee
4FF#	4F#	4f#	.
4AA	4A	4a	.
4GG	4G	4g	.
=151	=151	=151	=151
4BB	4B	4b	1ee]
4AA	4A	4a	.
4C	4c	4cc	.
4BB	4B	4b	.
=152	=152	=152	=152
1GG 1D	1G 1d	2.b	2.ff
.	.	4dd	4fff
=153	=153	=153	=153
1C	4e	1g	4eee
.	4e	.	4ccc
.	4e	.	4gg
.	4e	.	4ee
=154	=154	=154	=154
2.BB	[1e	2.g#	4dd
.	.	.	4b
.	.	.	4g#
4GG#	.	4b	4ddd
=155	=155	=155	=155
[1AA	4e]	1e	4ccc
.	4c	.	4aa
.	4c	.	4ee
.	4c	.	4cc
=156	=156	=156	=156
1AA]	1c	[1f#	4a
.	.	.	8ccc
.	.	.	8bb
.	.	.	8aa
.	.	.	8gg
.	.	.	8ff#
.	.	.	8ee
=157	=157	=157	=157
4BB	4B	4f#]	4dd#
2.r	2.r	2.r	4b
.	.	.	4b
.	.	.	4b
=158	=158	=158	=158
1r	1r	4B	[1b
.	.	4c#	.
.	.	4e	.
.	.	4d#	.
=159	=159	=159	=159
1r	4B	4f#	1b_
.	4c#	4e	.
.	4e	4g#	.
.	4d#	4f#	.
=160	=160	=160	=160
8BB	1f#	1a	1b_
8C#	.	.	.
8E	.	.	.
8D#	.	.	.
8F#	.	.	.
8E	.	.	.
8G#	.	.	.
8F#	.	.	.
=161	=161	=161	=161
1A	1d#	1f#	8b]
.	.	.	8cc#
.	.	.	8ee
.	.	.	8dd#
.	.	.	8ff#
.	.	.	8ee
.	.	.	8gg#
.	.	.	8ff#
=162	=162	=162	=162
1r	1r	1r	2.aa
.	.	.	4ff#
=163	=163	=163	=163
1A	1B	1f#	8dd#
.	.	.	8ee
.	.	.	8gg#
.	.	.	8ff#
.	.	.	8aa
.	.	.	8gg#
.	.	.	8bb
.	.	.	8aa
=164	=164	=164	=164
1r	1r	1r	2ccc#
.	.	.	4aa
.	.	.	4ff#
=165	=165	=165	=165
1r	1r	1r	1dd#
=166	=166	=166	=166
4E	4e	4ee	[1ee
4D	4d	4dd	.
4BB	4B	4b	.
4C	4c	4cc	.
=167	=167	=167	=167
4AA#	4A#	4a#	1ee]
4BB	4B	4b	.
4FF#	4F#	4f#	.
4GG	4G	4g	.
=168	=168	=168	=168
[1AA [1F	[1c	4f	4ff
.	.	4e	4ee
.	.	4g	4gg
.	.	4f	4ff
=169	=169	=169	=169
1AA] 1F]	1c]	4b-	4bb-
.	.	4a	4aa
.	.	4g	4gg
.	.	4f	4ff
=170	=170	=170	=170
[1AA#	[1c#	[1g	[1ee
=171	=171	=171	=171
4AA#]	4c#]	4g]	4ee]
4AA#	4c#	4g	4ee
4AA#	4c#	4g	4ee
4AA#	4c#	4g	4ee
=172	=172	=172	=172
2BB	2B	2g#	2g# 2ee 2b
2r	2r	4r	4r
.	.	4e	4g#
=173	=173	=173	=173
2.r	1r	4f#	4a
.	.	4g#	4b
.	.	4a	4cc#
4e	.	4g#	4b
=174	=174	=174	=174
4d#	[1b	1ff#	1aa
4B	.	.	.
4A	.	.	.
8F#	.	.	.
8D#	.	.	.
=175	=175	=175	=175
4E	4b]	4ee	4gg#
4BB	4a	4dd#	4ff#
4C#	4g#	4ee	4ee
4AA	4a	8cc#	4ff#
.	.	8a	.
=176	=176	=176	=176
4BB	2b	2g#	2ee
4B	.	.	.
4BB	2r	4f#	4dd#
4r	.	4e	4g#
=177	=177	=177	=177
2.r	1r	4f#	4a
.	.	4g#	4b
.	.	4a	4cc#
4e	.	4g#	4b
=178	=178	=178	=178
4d#	1b	1ff#	1aa
4B	.	.	.
4A	.	.	.
8F#	.	.	.
8D#	.	.	.
=179	=179	=179	=179
4E	4e	4ee	4gg#
4AA	4A	8cc#	4ff#
.	.	8a	.
4BB	4B	4g#	4ee
4BB	4B	8a	8ff#
.	.	8f#	8dd#
=180	=180	=180	=180
[1EE	4e	4g#	4ee
.	4f#	4a	2r
.	4g#	4b	.
.	4e	4g#	12ee
.	.	.	12ff#
.	.	.	12ee
=181	=181	=181	=181
1EE_	1f#	1a 1d#	12dd#
.	.	.	12ee
.	.	.	12dd#
.	.	.	12b
.	.	.	12cc#
.	.	.	12b
.	.	.	12a
.	.	.	12b
.	.	.	12a
.	.	.	12f#
.	.	.	12a
.	.	.	12d#
=182	=182	=182	=182
1EE_	4e	4g#	12e
.	.	.	12g#
.	.	.	12b
.	4f#	4a	12b
.	.	.	12b
.	.	.	12b
.	4g#	4b	12b
.	.	.	12cc#
.	.	.	12dd#
.	4e	4g#	12ee
.	.	.	12gg#
.	.	.	12ee
=183	=183	=183	=183
1EE]	1f#	1a 1d#	12dd#
.	.	.	12ee
.	.	.	12dd#
.	.	.	12b
.	.	.	12cc#
.	.	.	12b
.	.	.	12a
.	.	.	12b
.	.	.	12a
.	.	.	12f#
.	.	.	12a
.	.	.	12d#
=184	=184	=184	=184
4E	8e	8g#	4e
.	8e	8g#	.
4EE	8r	8r	2r
.	8f#	8a	.
4E	8r	8r	.
.	8g#	8b	.
4EE	8r	8r	12ee
.	.	.	12ff#
.	8e	8g#	.
.	.	.	12ee
=185	=185	=185	=185
4BB	8r	8r	12dd#
.	.	.	12ee
.	8f#	8a	.
.	.	.	12dd#
4D#	8r	8r	12b
.	.	.	12cc#
.	8f#	8a	.
.	.	.	12b
4F#	8r	8r	12a
.	.	.	12b
.	8f#	8a	.
.	.	.	12a
4B	8r	8r	12f#
.	.	.	12a
.	8f#	8a	.
.	.	.	12d#
=186	=186	=186	=186
4E	8r	8r	12e
.	.	.	12g#
.	8e	8g#	.
.	.	.	12b
4EE	8r	8r	12b
.	.	.	12b
.	8f#	8a	.
.	.	.	12b
4E	8r	8r	12b
.	.	.	12cc#
.	8g#	8b	.
.	.	.	12dd#
4EE	8r	8r	12ee
.	.	.	12gg#
.	8e	8g#	.
.	.	.	12ee
=187	=187	=187	=187
4BB	8r	8r	12dd#
.	.	.	12ee
.	8f#	8a	.
.	.	.	12dd#
4D#	8r	8r	12b
.	.	.	12cc#
.	8f#	8a	.
.	.	.	12b
4F#	8r	8r	12a
.	.	.	12b
.	8f#	8a	.
.	.	.	12a
4B	8r	8r	12f#
.	.	.	12a
.	8f#	8a	.
.	.	.	12d#
=188	=188	=188	=188
4E	4e	4g#	4e
4r	4r	4r	4r
2EE	2E	2ee 2e 2b	2ee 2b 2e
=189	=189	=189	=189
2EE	2E	2b 2e 2ee	2ee 2e 2b
2r	2r	2r	2r
==	==	==	==
*-	*-	*-	*-
!!!RWG1: This file contains only pitch and duration data.
!!!RWG2: Transposing instruments are not transposed.
!!!RWG3: Spines may have incompatible meters.
!!!RWG4: Durations of rests and tied notes may be interpreted.
!!!RWG: Key is interpreted using the Humdrum key tool.
!!!GTL: 6 Quators ("Tost I + II")
!!!AFT: stage1
!!!END: 1997/04/15
!!!KEY: 3538059859
!!!EMD: Converted from MuseData to Humdrum Dec 16, 2000, by Andreas Kornstaedt using muse2kern.
!!!EMD: Manual editing by Craig Sapp, Nov 2001
